; generated by PrusaSlicer 2.6.1+linux-x64-GTK2 on 2024-02-20 at 05:51:48 UTC


;
;
; 

; external perimeters extrusion width = 0.45mm
; perimeters extrusion width = 0.45mm
; infill extrusion width = 0.45mm
; solid infill extrusion width = 0.45mm
; top infill extrusion width = 0.40mm
; first layer extrusion width = 0.42mm

M73 P0 R51
M73 Q0 S51
M201 X1000 Y1000 Z200 E5000 ; sets maximum accelerations, mm/sec^2
M203 X200 Y200 Z12 E120 ; sets maximum feedrates, mm / sec
M204 S1250 T1250 ; sets acceleration (S) and retract acceleration (R), mm/sec^2
M205 X8.00 Y8.00 Z0.40 E4.50 ; sets the jerk limits, mm/sec
M205 S0 T0 ; sets the minimum extruding and travel feed rate, mm/sec
;TYPE:Custom
M862.3 P "MK3S" ; printer model check
M862.1 P0.4 ; nozzle diameter check
M115 U3.13.0 ; tell printer latest fw version
G90 ; use absolute coordinates
M83 ; extruder relative mode
M104 S215 ; set extruder temp
M140 S60 ; set bed temp
M190 S60 ; wait for bed temp
M109 S215 ; wait for extruder temp
G28 W ; home all without mesh bed level
G80 ; mesh bed leveling

G1 Z0.2 F720
G1 Y-3 F1000 ; go outside print area
G92 E0
G1 X60 E9 F1000 ; intro line
G1 X100 E12.5 F1000 ; intro line

G92 E0
M221 S95

; Don't change E values below. Excessive value can damage the printer.

M907 E538 ; set extruder motor current
G21 ; set units to millimeters
G90 ; use absolute coordinates
M83 ; use relative distances for extrusion
M900 K0.05 ; Filament gcode LA 1.5
M900 K30 ; Filament gcode LA 1.0
M107
;LAYER_CHANGE
;Z:0.2
;HEIGHT:0.2
;BEFORE_LAYER_CHANGE
G92 E0.0
;0.2


G1 E-.8 F2100
G1 Z.4 F720
;AFTER_LAYER_CHANGE
;0.2
G1 X114.154 Y96.587 F10800
G1 Z.2 F720
G1 E.8 F2100
M204 S800
;TYPE:Skirt/Brim
;WIDTH:0.42
G1 F1200
G1 X116.587 Y94.154 E.10788
G1 X117.283 Y93.647 E.027
G1 X120.35 Y92.084 E.10793
G1 X121.17 Y91.818 E.02703
G1 X124.57 Y91.28 E.10793
G1 X125.431 Y91.28 E.027
G1 X128.83 Y91.818 E.1079
G1 X129.65 Y92.084 E.02703
G1 X132.717 Y93.647 E.10793
G1 X133.413 Y94.154 E.027
G1 X135.846 Y96.587 E.10788
G1 X136.353 Y97.283 E.027
G1 X137.916 Y100.35 E.10793
G1 X138.182 Y101.17 E.02703
G1 X138.72 Y104.569 E.1079
G1 X138.72 Y105.431 E.02703
G1 X138.182 Y108.83 E.1079
G1 X137.916 Y109.65 E.02703
G1 X136.353 Y112.717 E.10793
G1 X135.846 Y113.413 E.027
G1 X133.413 Y115.846 E.10788
G1 X132.717 Y116.353 E.027
G1 X129.65 Y117.916 E.10793
G1 X128.83 Y118.182 E.02703
G1 X125.431 Y118.72 E.1079
G1 X124.569 Y118.72 E.02703
G1 X121.17 Y118.182 E.1079
G1 X120.35 Y117.916 E.02703
G1 X117.283 Y116.353 E.10793
G1 X116.587 Y115.846 E.027
G1 X114.154 Y113.413 E.10788
G1 X113.647 Y112.717 E.027
G1 X112.084 Y109.65 E.10793
G1 X111.818 Y108.83 E.02703
G1 X111.28 Y105.43 E.10793
G1 X111.28 Y104.57 E.02696
G1 X111.818 Y101.17 E.10793
G1 X112.084 Y100.35 E.02703
G1 X113.647 Y97.283 E.10793
G1 X114.118 Y96.635 E.02512
M204 S1000
G1 X114.42 Y96.854 F10800
M204 S800
G1 F1200
G1 X116.853 Y94.42 E.10791
G1 X117.455 Y93.983 E.02332
G1 X120.522 Y92.42 E.10793
G1 X121.229 Y92.19 E.02331
G1 X124.629 Y91.652 E.10793
G1 X125.372 Y91.652 E.0233
G1 X128.771 Y92.19 E.1079
G1 X129.478 Y92.42 E.02331
G1 X132.545 Y93.983 E.10793
G1 X133.147 Y94.42 E.02332
G1 X135.58 Y96.853 E.10788
G1 X136.017 Y97.455 E.02332
G1 X137.58 Y100.522 E.10793
G1 X137.81 Y101.229 E.02331
G1 X138.348 Y104.628 E.1079
G1 X138.348 Y105.372 E.02333
G1 X137.81 Y108.771 E.1079
G1 X137.58 Y109.478 E.02331
G1 X136.017 Y112.545 E.10793
G1 X135.58 Y113.147 E.02332
G1 X133.147 Y115.58 E.10788
G1 X132.545 Y116.017 E.02332
G1 X129.478 Y117.58 E.10793
G1 X128.771 Y117.81 E.02331
G1 X125.372 Y118.348 E.1079
G1 X124.628 Y118.348 E.02333
G1 X121.229 Y117.81 E.1079
G1 X120.522 Y117.58 E.02331
G1 X117.455 Y116.017 E.10793
G1 X116.853 Y115.58 E.02332
G1 X114.42 Y113.147 E.10788
G1 X113.983 Y112.545 E.02332
G1 X112.42 Y109.478 E.10793
G1 X112.19 Y108.771 E.02331
G1 X111.652 Y105.371 E.10793
G1 X111.652 Y104.629 E.02326
G1 X112.19 Y101.229 E.10793
G1 X112.42 Y100.522 E.02331
G1 X113.983 Y97.455 E.10793
G1 X114.384 Y96.903 E.02139
M204 S1000
; printing object tinker.obj id:0 copy 0
;WIPE_START
G1 F8640
G1 X116.827 Y94.446 E-.8
;WIPE_END
G1 Z.6 F720
G1 X115.296 Y108.153 F10800
G1 Z.2 F720
G1 E.8 F2100
M204 S800
;TYPE:Perimeter
;WIDTH:0.419999
G1 F1200
G1 X114.797 Y105 E.10009
G1 X115.296 Y101.847 E.10009
G1 X116.746 Y99.002 E.10012
G1 X119.002 Y96.746 E.10003
G1 X121.847 Y95.296 E.10012
G1 X125 Y94.797 E.10009
G1 X128.153 Y95.296 E.10009
G1 X130.998 Y96.746 E.10012
G1 X133.254 Y99.002 E.10003
G1 X134.704 Y101.847 E.10012
G1 X135.203 Y105 E.10009
G1 X134.704 Y108.153 E.10009
G1 X133.254 Y110.998 E.10012
G1 X130.998 Y113.254 E.10003
G1 X128.153 Y114.704 E.10012
G1 X125 Y115.203 E.10009
G1 X121.847 Y114.704 E.10009
G1 X119.002 Y113.254 E.10012
G1 X116.746 Y110.998 E.10003
G1 X115.323 Y108.206 E.09826
M204 S1000
G1 X114.933 Y108.271 F10800
M204 S800
;TYPE:External perimeter
G1 F1200
G1 X114.415 Y105 E.10384
G1 X114.933 Y101.729 E.10384
G1 X116.437 Y98.778 E.10385
G1 X118.778 Y96.437 E.1038
G1 X121.729 Y94.933 E.10385
G1 X125 Y94.415 E.10384
G1 X128.271 Y94.933 E.10384
G1 X131.222 Y96.437 E.10385
G1 X133.563 Y98.778 E.1038
G1 X135.067 Y101.729 E.10385
G1 X135.585 Y105 E.10384
G1 X135.067 Y108.271 E.10384
G1 X133.563 Y111.222 E.10385
G1 X131.222 Y113.563 E.1038
G1 X128.271 Y115.067 E.10385
G1 X125 Y115.585 E.10384
G1 X121.729 Y115.067 E.10384
G1 X118.778 Y113.563 E.10385
G1 X116.437 Y111.222 E.1038
G1 X114.96 Y108.324 E.10199
M204 S1000
G1 X115.2 Y107.973 F10800
;WIPE_START
G1 F8640
G1 X114.415 Y105 E-.77777
G1 X114.43 Y104.905 E-.02223
;WIPE_END
G1 Z.6 F720
G1 X125.044 Y112.786 F10800
G1 Z.2 F720
G1 E.8 F2100
M204 S800
;TYPE:Perimeter
G1 F1200
G1 X124.921 Y112.786 E.00386
G1 X122.691 Y112.432 E.0708
G1 X122.523 Y112.377 E.00554
G1 X120.511 Y111.352 E.0708
G1 X120.368 Y111.248 E.00554
G1 X118.772 Y109.652 E.07077
G1 X118.668 Y109.509 E.00554
G1 X117.643 Y107.497 E.0708
G1 X117.588 Y107.329 E.00554
G1 X117.234 Y105.098 E.07083
G1 X117.234 Y104.921 E.00555
G1 X117.588 Y102.691 E.0708
G1 X117.643 Y102.523 E.00554
G1 X118.668 Y100.511 E.0708
G1 X118.772 Y100.368 E.00554
G1 X120.368 Y98.772 E.07077
G1 X120.511 Y98.668 E.00554
G1 X122.523 Y97.643 E.0708
G1 X122.691 Y97.588 E.00554
G1 X124.922 Y97.235 E.07082
G1 X125.098 Y97.235 E.00552
M73 P0 R50
G1 X127.329 Y97.588 E.07082
G1 X127.497 Y97.643 E.00554
G1 X129.509 Y98.668 E.0708
G1 X129.652 Y98.772 E.00554
G1 X131.248 Y100.368 E.07077
G1 X131.352 Y100.511 E.00554
G1 X132.377 Y102.523 E.0708
G1 X132.432 Y102.691 E.00554
G1 X132.786 Y104.922 E.07083
G1 X132.786 Y105.099 E.00555
G1 X132.432 Y107.329 E.0708
G1 X132.377 Y107.497 E.00554
G1 X131.352 Y109.509 E.0708
G1 X131.248 Y109.652 E.00554
G1 X129.652 Y111.248 E.07077
G1 X129.509 Y111.352 E.00554
G1 X127.497 Y112.377 E.0708
G1 X127.329 Y112.432 E.00554
G1 X125.104 Y112.785 E.07064
M204 S1000
G1 X125.066 Y112.409 F10800
M204 S800
;TYPE:External perimeter
G1 F1200
G1 X124.98 Y112.413 E.0027
G1 X122.75 Y112.059 E.0708
G1 X120.635 Y110.982 E.07442
G1 X119.004 Y109.337 E.07263
G1 X117.961 Y107.27 E.07259
G1 X117.607 Y105.039 E.07083
G1 X117.961 Y102.75 E.07262
G1 X119.038 Y100.635 E.07442
M73 Q0 S50
G1 X120.635 Y99.038 E.07081
G1 X122.694 Y97.979 E.0726
G1 X124.981 Y97.608 E.07264
G1 X127.27 Y97.961 E.07262
G1 X129.385 Y99.038 E.07442
G1 X131.016 Y100.683 E.07263
G1 X132.059 Y102.75 E.07259
G1 X132.413 Y104.981 E.07083
G1 X132.059 Y107.27 E.07262
G1 X130.982 Y109.385 E.07442
G1 X129.337 Y111.016 E.07263
G1 X127.326 Y112.041 E.07077
G1 X125.125 Y112.4 E.06992
M204 S1000
G1 X125.033 Y112.488 F10800
;WIPE_START
G1 F8640
G1 X124.98 Y112.413 E-.03362
G1 X122.75 Y112.059 E-.52136
G1 X121.804 Y111.577 E-.24502
;WIPE_END
G1 Z.6 F720
G1 X130.4 Y96.632 F10800
G1 Z.2 F720
G1 E.8 F2100
M204 S800
;TYPE:Solid infill
;WIDTH:0.424719
G1 F1200
G1 X132.98 Y99.211 E.11581
G1 X133.541 Y100.312 E.03923
G1 X129.688 Y96.459 E.17299
G1 X128.587 Y95.898 E.03923
G1 X134.102 Y101.413 E.2476
G1 X134.377 Y101.953 E.01924
G1 X134.429 Y102.28 E.01051
G1 X127.72 Y95.571 E.30121
G1 X127.078 Y95.469 E.02064
G1 X134.531 Y102.922 E.33461
G1 X134.632 Y103.563 E.0206
M73 Q1 S50
G1 X131.875 Y100.806 E.12378
G1 X131.578 Y100.23 E.02057
M73 P1 R50
G1 X129.884 Y98.523 E.07635
G1 X129.673 Y98.37 E.00827
G1 X129.202 Y98.133 E.01674
G1 X126.437 Y95.368 E.12414
G1 X125.795 Y95.266 E.02064
G1 X128.113 Y97.584 E.10407
G1 X127.515 Y97.283 E.02125
G1 X127.225 Y97.236 E.00933
G1 X125.154 Y95.165 E.09298
G1 X125 Y95.14 E.00495
G1 X124.646 Y95.197 E.01138
G1 X126.58 Y97.131 E.08683
G1 X125.936 Y97.027 E.02071
G1 X124.179 Y95.27 E.07888
G1 X123.713 Y95.344 E.01498
G1 X125.292 Y96.923 E.07089
G1 X125.14 Y96.898 E.00489
G1 X124.88 Y96.898 E.00825
G1 X124.748 Y96.919 E.00424
G1 X123.247 Y95.418 E.06739
G1 X122.781 Y95.492 E.01498
G1 X124.282 Y96.993 E.06739
G1 X123.816 Y97.067 E.01498
G1 X122.315 Y95.565 E.06741
G1 X121.953 Y95.623 E.01164
G1 X121.873 Y95.664 E.00285
G1 X123.35 Y97.14 E.06629
G1 X122.883 Y97.214 E.01501
G1 X121.515 Y95.846 E.06142
G1 X121.158 Y96.028 E.01272
G1 X122.444 Y97.314 E.05774
G1 X122.079 Y97.49 E.01286
G1 X120.8 Y96.211 E.05742
G1 X120.442 Y96.393 E.01275
G1 X121.722 Y97.673 E.05747
G1 X121.366 Y97.856 E.01271
G1 X120.085 Y96.575 E.05751
G1 X119.727 Y96.757 E.01275
G1 X121.009 Y98.04 E.05758
G1 X120.653 Y98.223 E.01271
G1 X119.369 Y96.94 E.05762
G1 X119.204 Y97.024 E.00588
G1 X119.059 Y97.169 E.00651
G1 X120.296 Y98.407 E.05556
G1 X120.234 Y98.439 E.00222
G1 X120.011 Y98.661 E.00999
G1 X118.789 Y97.439 E.05486
G1 X118.519 Y97.709 E.01212
G1 X119.74 Y98.93 E.05482
G1 X119.469 Y99.199 E.01212
G1 X118.249 Y97.979 E.05477
G1 X117.979 Y98.249 E.01212
G1 X119.198 Y99.468 E.05473
G1 X118.927 Y99.736 E.0121
G1 X117.709 Y98.519 E.05466
G1 X117.439 Y98.789 E.01212
G1 X118.655 Y100.005 E.05459
G1 X118.523 Y100.136 E.0059
G1 X118.407 Y100.297 E.0063
G1 X117.169 Y99.059 E.05558
G1 X117.024 Y99.204 E.00651
G1 X116.94 Y99.369 E.00588
G1 X118.218 Y100.648 E.0574
G1 X118.037 Y101.007 E.01276
G1 X116.757 Y99.727 E.05747
G1 X116.575 Y100.085 E.01275
G1 X117.856 Y101.366 E.05751
G1 X117.675 Y101.725 E.01276
G1 X116.393 Y100.442 E.05758
G1 X116.21 Y100.8 E.01276
G1 X117.494 Y102.084 E.05765
G1 X117.313 Y102.442 E.01274
G1 X116.028 Y101.158 E.05767
G1 X115.846 Y101.515 E.01272
G1 X117.222 Y102.892 E.0618
G1 X117.148 Y103.358 E.01498
G1 X115.664 Y101.873 E.06665
G1 X115.623 Y101.953 E.00285
G1 X115.565 Y102.315 E.01164
G1 X117.074 Y103.823 E.06773
G1 X117 Y104.289 E.01498
G1 X115.492 Y102.781 E.0677
G1 X115.418 Y103.247 E.01498
G1 X116.926 Y104.755 E.0677
G1 X116.886 Y105.006 E.00807
G1 X116.933 Y105.302 E.00951
G1 X115.344 Y103.713 E.07134
G1 X115.27 Y104.179 E.01498
G1 X117.034 Y105.943 E.0792
G1 X117.135 Y106.585 E.02063
G1 X115.197 Y104.646 E.08703
G1 X115.14 Y105 E.01138
G1 X115.165 Y105.154 E.00495
G1 X117.237 Y107.226 E.09303
G1 X117.283 Y107.515 E.00929
G1 X117.584 Y108.113 E.02125
G1 X115.062 Y105.591 E.11323
M204 S1000
;WIPE_START
G1 F8640
G1 X117.512 Y108.041 E-.8
;WIPE_END
G1 Z.6 F720
G1 X132.055 Y101.526 F10800
G1 Z.2 F720
G1 E.8 F2100
M204 S800
G1 F1200
G1 X134.734 Y104.205 E.12028
G1 X134.835 Y104.846 E.0206
G1 X132.793 Y102.804 E.09168
G1 X132.892 Y103.443 E.02053
G1 X134.803 Y105.354 E.0858
G1 X134.73 Y105.821 E.01501
G1 X132.991 Y104.082 E.07808
G1 X133.09 Y104.721 E.02053
G1 X134.656 Y106.287 E.07031
G1 X134.582 Y106.753 E.01498
G1 X133.094 Y105.265 E.06681
G1 X133.022 Y105.733 E.01503
G1 X134.508 Y107.219 E.06672
G1 X134.435 Y107.685 E.01497
G1 X132.95 Y106.2 E.06667
G1 X132.877 Y106.668 E.01504
G1 X134.336 Y108.127 E.0655
G1 X134.154 Y108.485 E.01275
G1 X132.805 Y107.136 E.06057
G1 X132.765 Y107.394 E.00829
G1 X132.706 Y107.576 E.00607
G1 X133.972 Y108.842 E.05684
G1 X133.789 Y109.2 E.01276
G1 X132.53 Y107.941 E.05652
G1 X132.347 Y108.298 E.01274
G1 X133.607 Y109.558 E.05657
G1 X133.425 Y109.915 E.01272
G1 X132.164 Y108.654 E.05661
G1 X131.98 Y109.011 E.01275
G1 X133.243 Y110.273 E.05668
G1 X133.06 Y110.631 E.01276
G1 X131.797 Y109.367 E.05673
G1 X131.614 Y109.724 E.01274
G1 X132.831 Y110.941 E.05464
G1 X132.561 Y111.211 E.01212
G1 X131.359 Y110.009 E.05397
G1 X131.09 Y110.28 E.01212
G1 X132.291 Y111.481 E.05392
G1 X132.021 Y111.751 E.01212
G1 X130.821 Y110.551 E.05388
G1 X130.552 Y110.822 E.01212
G1 X131.751 Y112.021 E.05383
G1 X131.481 Y112.291 E.01212
G1 X130.283 Y111.093 E.05379
G1 X130.015 Y111.364 E.0121
G1 X131.211 Y112.561 E.05372
G1 X130.941 Y112.831 E.01212
G1 X129.723 Y111.613 E.05468
G1 X129.372 Y111.801 E.01264
G1 X130.631 Y113.06 E.05652
G1 X130.273 Y113.243 E.01276
G1 X129.013 Y111.983 E.05657
G1 X128.654 Y112.164 E.01276
G1 X129.915 Y113.425 E.05661
G1 X129.558 Y113.607 E.01272
G1 X128.295 Y112.345 E.05668
G1 X127.936 Y112.526 E.01276
G1 X129.2 Y113.79 E.05675
G1 X128.842 Y113.972 E.01275
G1 X127.577 Y112.707 E.05679
G1 X127.517 Y112.737 E.00213
G1 X127.129 Y112.798 E.01247
G1 X128.485 Y114.154 E.06088
G1 X128.127 Y114.336 E.01275
G1 X126.663 Y112.872 E.06573
G1 X126.196 Y112.946 E.01501
G1 X127.685 Y114.435 E.06685
G1 X127.219 Y114.508 E.01497
G1 X125.73 Y113.019 E.06685
G1 X125.264 Y113.093 E.01498
G1 X126.753 Y114.582 E.06685
G1 X126.287 Y114.656 E.01498
G1 X124.721 Y113.09 E.07031
G1 X124.082 Y112.991 E.02053
G1 X125.821 Y114.73 E.07808
G1 X125.354 Y114.803 E.01501
G1 X123.443 Y112.892 E.0858
G1 X122.804 Y112.793 E.02053
G1 X124.846 Y114.835 E.09168
G1 X124.205 Y114.734 E.0206
G1 X121.525 Y112.054 E.12032
M204 S1000
;WIPE_START
G1 F8640
G1 X123.975 Y114.504 E-.8
;WIPE_END
G1 Z.6 F720
G1 X123.767 Y114.836 F10800
G1 Z.2 F720
G1 E.8 F2100
M204 S800
G1 F1200
G1 X120.806 Y111.875 E.13294
G1 X120.23 Y111.578 E.02057
G1 X118.523 Y109.884 E.07635
G1 X118.37 Y109.673 E.00827
G1 X118.133 Y109.202 E.01674
G1 X115.368 Y106.437 E.12414
G1 X115.469 Y107.078 E.0206
G1 X122.922 Y114.531 E.33461
G1 X122.28 Y114.429 E.02064
G1 X115.571 Y107.72 E.30121
G1 X115.623 Y108.047 E.01051
G1 X115.898 Y108.587 E.01924
G1 X121.413 Y114.102 E.2476
G1 X120.312 Y113.541 E.03923
G1 X116.459 Y109.688 E.17299
G1 X117.02 Y110.789 E.03923
G1 X119.599 Y113.368 E.11579
M204 S1000
; stop printing object tinker.obj id:0 copy 0
M106 S84.15
;LAYER_CHANGE
;Z:0.4
;HEIGHT:0.2
;BEFORE_LAYER_CHANGE
G92 E0.0
;0.4


;WIPE_START
G1 F8640
G1 X117.149 Y110.918 E-.8
;WIPE_END
G1 Z.6 F720
;AFTER_LAYER_CHANGE
;0.4
M104 S210 ; set temperature
G1 X114.404 Y113.664 F10800
G1 Z.4 F720
G1 E.8 F2100
;TYPE:Skirt/Brim
;WIDTH:0.42
G1 F3000
G1 X114.154 Y113.413 E.01111
G1 X113.647 Y112.717 E.027
G1 X112.084 Y109.65 E.10793
G1 X111.818 Y108.83 E.02703
G1 X111.28 Y105.43 E.10793
G1 X111.28 Y104.57 E.02696
G1 X111.818 Y101.17 E.10793
G1 X112.084 Y100.35 E.02703
G1 X113.647 Y97.283 E.10793
G1 X114.154 Y96.587 E.027
G1 X116.587 Y94.154 E.10788
G1 X117.283 Y93.647 E.027
G1 X120.35 Y92.084 E.10793
G1 X121.17 Y91.818 E.02703
G1 X124.57 Y91.28 E.10793
G1 X125.431 Y91.28 E.027
G1 X128.83 Y91.818 E.1079
G1 X129.65 Y92.084 E.02703
G1 X132.717 Y93.647 E.10793
G1 X133.413 Y94.154 E.027
G1 X135.846 Y96.587 E.10788
G1 X136.353 Y97.283 E.027
G1 X137.916 Y100.35 E.10793
G1 X138.182 Y101.17 E.02703
G1 X138.72 Y104.569 E.1079
G1 X138.72 Y105.431 E.02703
G1 X138.182 Y108.83 E.1079
G1 X137.916 Y109.65 E.02703
G1 X136.353 Y112.717 E.10793
G1 X135.846 Y113.413 E.027
G1 X133.413 Y115.846 E.10788
G1 X132.717 Y116.353 E.027
G1 X129.65 Y117.916 E.10793
G1 X128.83 Y118.182 E.02703
G1 X125.431 Y118.72 E.1079
G1 X124.569 Y118.72 E.02703
G1 X121.17 Y118.182 E.1079
G1 X120.35 Y117.916 E.02703
G1 X117.283 Y116.353 E.10793
G1 X116.587 Y115.846 E.027
G1 X114.446 Y113.706 E.09491
G1 X114.713 Y113.439 F10800
G1 F3000
G1 X114.42 Y113.147 E.01297
G1 X113.983 Y112.545 E.02332
G1 X112.42 Y109.478 E.10793
G1 X112.19 Y108.771 E.02331
G1 X111.652 Y105.371 E.10793
G1 X111.652 Y104.629 E.02326
G1 X112.19 Y101.229 E.10793
G1 X112.42 Y100.522 E.02331
G1 X113.983 Y97.455 E.10793
G1 X114.42 Y96.853 E.02332
G1 X116.853 Y94.42 E.10788
G1 X117.455 Y93.983 E.02332
G1 X120.522 Y92.42 E.10793
G1 X121.229 Y92.19 E.02331
G1 X124.629 Y91.652 E.10793
G1 X125.372 Y91.652 E.0233
G1 X128.771 Y92.19 E.1079
G1 X129.478 Y92.42 E.02331
G1 X132.545 Y93.983 E.10793
