; generated by PrusaSlicer 2.6.1+linux-x64-GTK2 on 2024-02-20 at 05:52:38 UTC


;
;
; 

; external perimeters extrusion width = 0.45mm
; perimeters extrusion width = 0.45mm
; infill extrusion width = 0.45mm
; solid infill extrusion width = 0.45mm
; top infill extrusion width = 0.40mm
; first layer extrusion width = 0.42mm

M73 P0 R20
M73 Q0 S20
M201 X1000 Y1000 Z200 E5000 ; sets maximum accelerations, mm/sec^2
M203 X200 Y200 Z12 E120 ; sets maximum feedrates, mm / sec
M204 S1250 T1250 ; sets acceleration (S) and retract acceleration (R), mm/sec^2
M205 X8.00 Y8.00 Z0.40 E4.50 ; sets the jerk limits, mm/sec
M205 S0 T0 ; sets the minimum extruding and travel feed rate, mm/sec
;TYPE:Custom
M862.3 P "MK3S" ; printer model check
M862.1 P0.4 ; nozzle diameter check
M115 U3.13.0 ; tell printer latest fw version
G90 ; use absolute coordinates
M83 ; extruder relative mode
M104 S215 ; set extruder temp
M140 S60 ; set bed temp
M190 S60 ; wait for bed temp
M109 S215 ; wait for extruder temp
G28 W ; home all without mesh bed level
G80 ; mesh bed leveling

G1 Z0.2 F720
G1 Y-3 F1000 ; go outside print area
G92 E0
G1 X60 E9 F1000 ; intro line
G1 X100 E12.5 F1000 ; intro line

G92 E0
M221 S95

; Don't change E values below. Excessive value can damage the printer.

M907 E538 ; set extruder motor current
G21 ; set units to millimeters
G90 ; use absolute coordinates
M83 ; use relative distances for extrusion
M900 K0.05 ; Filament gcode LA 1.5
M900 K30 ; Filament gcode LA 1.0
M107
;LAYER_CHANGE
;Z:0.2
;HEIGHT:0.2
;BEFORE_LAYER_CHANGE
G92 E0.0
;0.2


M73 P0 R19
G1 E-.8 F2100
G1 Z.4 F720
;AFTER_LAYER_CHANGE
;0.2
G1 X110.96 Y93.648 F10800
G1 Z.2 F720
G1 E.8 F2100
M204 S800
;TYPE:Skirt/Brim
;WIDTH:0.42
G1 F1200
G1 X112.14 Y92.325 E.05558
G1 X113.444 Y91.125 E.05556
G1 X114.859 Y90.058 E.05557
G1 X116.372 Y89.136 E.05555
G1 X117.966 Y88.366 E.0555
G1 X119.631 Y87.756 E.0556
G1 X121.345 Y87.313 E.05551
G1 X123.096 Y87.04 E.05556
G1 X124.864 Y86.939 E.05552
G1 X126.536 Y87.008 E.05247
G1 X128.389 Y87.26 E.05863
G1 X130.111 Y87.678 E.05556
G1 X131.783 Y88.262 E.05553
G1 X133.391 Y89.009 E.05559
G1 X134.916 Y89.908 E.05551
G1 X136.347 Y90.953 E.05556
G1 X137.669 Y92.134 E.05558
G1 X138.868 Y93.438 E.05554
G1 X139.934 Y94.855 E.0556
G1 X140.856 Y96.368 E.05555
G1 X141.625 Y97.964 E.05555
G1 X142.234 Y99.629 E.05559
G1 X142.678 Y101.344 E.05555
G1 X142.95 Y103.096 E.05559
G1 X143.051 Y104.864 E.05552
G1 X142.977 Y106.637 E.05564
G1 X142.73 Y108.39 E.05551
G1 X142.313 Y110.113 E.05558
G1 X141.728 Y111.786 E.05557
G1 X140.983 Y113.394 E.05557
G1 X140.084 Y114.921 E.05556
G1 X139.04 Y116.352 E.05554
G1 X137.86 Y117.675 E.05558
G1 X136.556 Y118.875 E.05556
G1 X135.141 Y119.942 E.05557
G1 X133.628 Y120.864 E.05555
G1 X132.034 Y121.634 E.0555
G1 X130.369 Y122.244 E.0556
G1 X128.655 Y122.687 E.05551
G1 X126.904 Y122.96 E.05556
G1 X125.136 Y123.061 E.05552
G1 X123.364 Y122.987 E.05561
G1 X121.611 Y122.74 E.05551
G1 X119.889 Y122.322 E.05556
G1 X118.217 Y121.738 E.05553
G1 X116.609 Y120.991 E.05559
G1 X115.084 Y120.092 E.05551
G1 X113.653 Y119.047 E.05556
G1 X112.331 Y117.866 E.05558
G1 X111.132 Y116.562 E.05554
G1 X110.066 Y115.145 E.0556
G1 X109.144 Y113.632 E.05555
G1 X108.375 Y112.036 E.05555
G1 X107.766 Y110.371 E.05559
G1 X107.322 Y108.656 E.05555
G1 X107.05 Y106.904 E.05559
M73 P1 R19
G1 X106.949 Y105.136 E.05552
G1 X107.023 Y103.363 E.05564
G1 X107.27 Y101.61 E.05551
M73 Q1 S20
G1 X107.687 Y99.887 E.05558
G1 X108.272 Y98.214 E.05557
G1 X109.017 Y96.606 E.05557
G1 X109.916 Y95.079 E.05556
G1 X110.924 Y93.696 E.05366
M204 S1000
G1 X111.229 Y93.919 F10800
M204 S800
G1 F1200
G1 X112.419 Y92.578 E.05621
G1 X113.697 Y91.404 E.05441
G1 X115.083 Y90.361 E.05439
G1 X116.566 Y89.459 E.05442
G1 X118.127 Y88.707 E.05433
G1 X119.758 Y88.111 E.05445
G1 X121.437 Y87.678 E.05437
G1 X123.152 Y87.413 E.05441
G1 X124.883 Y87.316 E.05436
G1 X126.517 Y87.385 E.05128
G1 X128.333 Y87.633 E.05747
G1 X130.019 Y88.043 E.0544
G1 X131.656 Y88.617 E.05439
G1 X133.23 Y89.35 E.05444
G1 X134.722 Y90.231 E.05433
G1 X136.123 Y91.256 E.05443
G1 X137.416 Y92.413 E.0544
G1 X138.589 Y93.691 E.05439
G1 X139.631 Y95.079 E.05442
G1 X140.532 Y96.562 E.05441
G1 X141.284 Y98.125 E.05438
G1 X141.879 Y99.756 E.05444
G1 X142.312 Y101.435 E.05437
G1 X142.577 Y103.151 E.05444
G1 X142.674 Y104.883 E.05439
G1 X142.6 Y106.618 E.05445
G1 X142.357 Y108.335 E.05437
G1 X141.947 Y110.022 E.05443
G1 X141.373 Y111.659 E.05439
G1 X140.642 Y113.233 E.05441
G1 X139.76 Y114.727 E.0544
G1 X138.737 Y116.128 E.05439
G1 X137.581 Y117.422 E.0544
G1 X136.303 Y118.596 E.05441
G1 X134.917 Y119.639 E.05439
G1 X133.434 Y120.541 E.05442
G1 X131.873 Y121.293 E.05433
G1 X130.242 Y121.889 E.05445
G1 X128.563 Y122.322 E.05437
G1 X126.848 Y122.587 E.05441
G1 X125.117 Y122.684 E.05436
G1 X123.383 Y122.61 E.05442
G1 X121.667 Y122.367 E.05434
G1 X119.981 Y121.957 E.0544
G1 X118.344 Y121.383 E.05439
G1 X116.77 Y120.65 E.05444
G1 X115.278 Y119.769 E.05433
G1 X113.877 Y118.744 E.05443
G1 X112.584 Y117.587 E.0544
G1 X111.411 Y116.309 E.05439
G1 X110.369 Y114.921 E.05442
G1 X109.468 Y113.438 E.05441
G1 X108.716 Y111.875 E.05438
G1 X108.121 Y110.244 E.05444
G1 X107.688 Y108.565 E.05437
G1 X107.423 Y106.849 E.05444
G1 X107.326 Y105.117 E.05439
G1 X107.4 Y103.382 E.05445
G1 X107.643 Y101.665 E.05437
G1 X108.053 Y99.978 E.05443
G1 X108.627 Y98.341 E.05439
G1 X109.358 Y96.767 E.05441
G1 X110.24 Y95.273 E.0544
G1 X111.193 Y93.967 E.05069
M204 S1000
; printing object tinker.obj id:0 copy 0
;WIPE_START
G1 F8640
G1 X112.419 Y92.578 E-.42779
G1 X113.606 Y91.487 E-.37221
;WIPE_END
G1 Z.6 F720
G1 X116.826 Y116.991 F10800
G1 Z.2 F720
G1 E.8 F2100
M204 S800
;TYPE:Perimeter
;WIDTH:0.419999
G1 F1200
G1 X115.794 Y116.226 E.04028
G1 X114.738 Y115.269 E.04468
G1 X113.782 Y114.213 E.04466
G1 X112.934 Y113.069 E.04465
G1 X112.202 Y111.846 E.04469
G1 X111.593 Y110.558 E.04467
G1 X111.113 Y109.215 E.04472
G1 X110.767 Y107.833 E.04467
G1 X110.558 Y106.424 E.04466
G1 X110.488 Y105 E.0447
G1 X110.558 Y103.576 E.0447
G1 X110.767 Y102.167 E.04466
G1 X111.113 Y100.785 E.04467
G1 X111.593 Y99.442 E.04472
G1 X112.202 Y98.154 E.04467
G1 X112.934 Y96.931 E.04469
G1 X113.782 Y95.787 E.04465
G1 X114.738 Y94.731 E.04466
G1 X115.794 Y93.774 E.04468
G1 X116.938 Y92.925 E.04467
G1 X118.16 Y92.193 E.04466
G1 X119.447 Y91.583 E.04466
G1 X120.788 Y91.103 E.04466
G1 X122.169 Y90.757 E.04464
G1 X123.577 Y90.548 E.04463
G1 X125 Y90.478 E.04467
G1 X126.423 Y90.548 E.04467
G1 X127.831 Y90.757 E.04463
G1 X129.212 Y91.103 E.04464
G1 X130.553 Y91.583 E.04466
G1 X131.84 Y92.193 E.04466
G1 X133.062 Y92.925 E.04466
G1 X134.206 Y93.774 E.04467
G1 X135.262 Y94.731 E.04468
G1 X136.218 Y95.787 E.04466
G1 X137.066 Y96.931 E.04465
G1 X137.798 Y98.154 E.04469
G1 X138.407 Y99.442 E.04467
G1 X138.887 Y100.785 E.04472
G1 X139.233 Y102.167 E.04467
G1 X139.442 Y103.576 E.04466
G1 X139.51 Y105.046 E.04614
G1 X139.442 Y106.424 E.04326
G1 X139.233 Y107.833 E.04466
G1 X138.887 Y109.215 E.04467
G1 X138.407 Y110.558 E.04472
G1 X137.798 Y111.846 E.04467
G1 X137.066 Y113.069 E.04469
G1 X136.218 Y114.213 E.04465
G1 X135.262 Y115.269 E.04466
G1 X134.206 Y116.226 E.04468
G1 X133.062 Y117.075 E.04467
G1 X131.84 Y117.807 E.04466
G1 X130.553 Y118.417 E.04466
G1 X129.212 Y118.897 E.04466
G1 X127.831 Y119.243 E.04464
G1 X126.423 Y119.452 E.04463
G1 X125 Y119.522 E.04467
G1 X123.577 Y119.452 E.04467
G1 X122.169 Y119.243 E.04463
G1 X120.788 Y118.897 E.04464
G1 X119.447 Y118.417 E.04466
G1 X118.16 Y117.807 E.04466
G1 X116.874 Y117.027 E.04716
M204 S1000
G1 X116.601 Y117.294 F10800
M204 S800
;TYPE:External perimeter
G1 F1200
G1 X115.554 Y116.518 E.04086
G1 X114.471 Y115.536 E.04584
G1 X113.49 Y114.453 E.04582
G1 X112.62 Y113.278 E.04584
G1 X111.869 Y112.024 E.04583
G1 X111.244 Y110.702 E.04585
G1 X110.752 Y109.325 E.04585
M73 P2 R19
G1 X110.397 Y107.907 E.04583
G1 X110.183 Y106.461 E.04583
G1 X110.11 Y105 E.04587
G1 X110.183 Y103.539 E.04587
G1 X110.397 Y102.093 E.04583
G1 X110.752 Y100.675 E.04583
G1 X111.244 Y99.298 E.04585
G1 X111.869 Y97.976 E.04585
G1 X112.62 Y96.722 E.04583
G1 X113.49 Y95.547 E.04584
G1 X114.471 Y94.464 E.04582
M73 Q2 S20
G1 X115.554 Y93.482 E.04584
G1 X116.728 Y92.611 E.04583
G1 X117.982 Y91.86 E.04583
G1 X119.302 Y91.234 E.04581
G1 X120.678 Y90.742 E.04582
G1 X122.095 Y90.387 E.0458
G1 X123.54 Y90.173 E.0458
G1 X125 Y90.1 E.04583
G1 X126.46 Y90.173 E.04583
G1 X127.905 Y90.387 E.0458
G1 X129.322 Y90.742 E.0458
G1 X130.698 Y91.234 E.04582
G1 X132.018 Y91.86 E.04581
G1 X133.272 Y92.611 E.04583
G1 X134.446 Y93.482 E.04583
G1 X135.529 Y94.464 E.04584
G1 X136.51 Y95.547 E.04582
G1 X137.38 Y96.722 E.04584
G1 X138.131 Y97.976 E.04583
G1 X138.756 Y99.298 E.04585
G1 X139.248 Y100.675 E.04585
G1 X139.603 Y102.093 E.04583
G1 X139.817 Y103.539 E.04583
G1 X139.886 Y105.064 E.04786
G1 X139.817 Y106.461 E.04386
G1 X139.603 Y107.907 E.04583
G1 X139.248 Y109.325 E.04583
G1 X138.756 Y110.702 E.04585
G1 X138.131 Y112.024 E.04585
G1 X137.38 Y113.278 E.04583
G1 X136.51 Y114.453 E.04584
G1 X135.529 Y115.536 E.04582
G1 X134.446 Y116.518 E.04584
G1 X133.272 Y117.389 E.04583
G1 X132.018 Y118.14 E.04583
G1 X130.698 Y118.766 E.04581
G1 X129.322 Y119.258 E.04582
G1 X127.905 Y119.613 E.0458
G1 X126.46 Y119.827 E.0458
G1 X125 Y119.9 E.04583
G1 X123.54 Y119.827 E.04583
G1 X122.095 Y119.613 E.0458
G1 X120.678 Y119.258 E.0458
G1 X119.302 Y118.766 E.04582
G1 X117.982 Y118.14 E.04581
G1 X116.649 Y117.33 E.04891
M204 S1000
G1 X116.628 Y116.895 F10800
;WIPE_START
G1 F8640
G1 X115.554 Y116.518 E-.31477
G1 X114.471 Y115.536 E-.33756
G1 X114.042 Y115.062 E-.14767
;WIPE_END
G1 Z.6 F720
G1 X127.373 Y117.316 F10800
G1 Z.2 F720
G1 E.8 F2100
M204 S800
;TYPE:Perimeter
G1 F1200
G1 X126.17 Y117.495 E.03813
G1 X124.918 Y117.56 E.03931
G1 X123.665 Y117.501 E.03933
G1 X122.424 Y117.319 E.03933
G1 X121.207 Y117.017 E.03932
G1 X120.026 Y116.597 E.0393
G1 X118.89 Y116.063 E.03936
G1 X117.813 Y115.421 E.03931
G1 X116.804 Y114.676 E.03933
G1 X115.873 Y113.836 E.03932
G1 X115.029 Y112.908 E.03933
G1 X114.28 Y111.903 E.0393
G1 X113.633 Y110.828 E.03934
G1 X113.094 Y109.696 E.03931
G1 X112.669 Y108.516 E.03932
G1 X112.362 Y107.301 E.03929
G1 X112.175 Y106.06 E.03935
G1 X112.11 Y104.808 E.03931
G1 X112.169 Y103.555 E.03933
G1 X112.351 Y102.314 E.03933
G1 X112.653 Y101.097 E.03932
G1 X113.073 Y99.916 E.0393
G1 X113.607 Y98.78 E.03936
G1 X114.249 Y97.703 E.03931
G1 X114.994 Y96.694 E.03933
G1 X115.834 Y95.763 E.03932
G1 X116.762 Y94.919 E.03933
G1 X117.767 Y94.17 E.0393
G1 X118.842 Y93.523 E.03934
G1 X119.974 Y92.984 E.03931
G1 X121.154 Y92.559 E.03932
G1 X122.369 Y92.252 E.03929
G1 X123.61 Y92.065 E.03935
G1 X124.862 Y92 E.03931
G1 X126.115 Y92.059 E.03933
G1 X127.356 Y92.241 E.03933
G1 X128.573 Y92.543 E.03932
G1 X129.754 Y92.963 E.0393
G1 X130.89 Y93.497 E.03936
G1 X131.967 Y94.139 E.03931
G1 X132.976 Y94.884 E.03933
G1 X133.907 Y95.724 E.03932
G1 X134.751 Y96.652 E.03933
G1 X135.5 Y97.657 E.0393
G1 X136.147 Y98.732 E.03934
G1 X136.686 Y99.864 E.03931
G1 X137.111 Y101.044 E.03932
G1 X137.418 Y102.259 E.03929
G1 X137.605 Y103.5 E.03935
G1 X137.67 Y104.752 E.03931
G1 X137.611 Y106.005 E.03933
G1 X137.429 Y107.246 E.03933
G1 X137.127 Y108.463 E.03932
G1 X136.707 Y109.644 E.0393
G1 X136.173 Y110.78 E.03936
G1 X135.531 Y111.857 E.03931
G1 X134.786 Y112.866 E.03933
G1 X133.946 Y113.797 E.03932
G1 X133.018 Y114.641 E.03933
G1 X132.013 Y115.39 E.0393
G1 X130.938 Y116.037 E.03934
G1 X129.806 Y116.576 E.03931
G1 X128.626 Y117.001 E.03932
G1 X127.431 Y117.303 E.03865
M204 S1000
G1 X127.307 Y116.945 F10800
M204 S800
;TYPE:External perimeter
G1 F1200
G1 X126.114 Y117.122 E.03782
G1 X124.899 Y117.183 E.03814
G1 X123.684 Y117.124 E.03814
G1 X122.479 Y116.946 E.03819
G1 X121.299 Y116.651 E.03814
G1 X120.153 Y116.242 E.03815
G1 X119.052 Y115.722 E.03818
G1 X118.007 Y115.097 E.03818
G1 X117.029 Y114.373 E.03815
G1 X116.127 Y113.557 E.03814
G1 X115.309 Y112.655 E.03818
G1 X114.583 Y111.679 E.03814
G1 X113.957 Y110.634 E.03819
G1 X113.435 Y109.535 E.03815
G1 X113.024 Y108.389 E.03817
G1 X112.728 Y107.209 E.03814
G1 X112.548 Y106.004 E.0382
G1 X112.487 Y104.789 E.03814
G1 X112.546 Y103.574 E.03814
G1 X112.724 Y102.369 E.03819
G1 X113.019 Y101.189 E.03814
G1 X113.428 Y100.043 E.03815
G1 X113.948 Y98.942 E.03818
G1 X114.573 Y97.897 E.03818
G1 X115.297 Y96.919 E.03815
G1 X116.113 Y96.017 E.03814
G1 X117.016 Y95.197 E.03824
G1 X117.992 Y94.473 E.0381
G1 X119.036 Y93.847 E.03817
G1 X120.135 Y93.325 E.03815
G1 X121.281 Y92.914 E.03817
G1 X122.461 Y92.618 E.03814
G1 X123.666 Y92.438 E.0382
G1 X124.881 Y92.377 E.03814
G1 X126.096 Y92.436 E.03814
G1 X127.301 Y92.614 E.03819
G1 X128.481 Y92.909 E.03814
G1 X129.627 Y93.318 E.03815
G1 X130.728 Y93.838 E.03818
G1 X131.773 Y94.463 E.03818
G1 X132.751 Y95.187 E.03815
G1 X133.653 Y96.004 E.03816
G1 X134.471 Y96.905 E.03816
G1 X135.197 Y97.882 E.03816
G1 X135.823 Y98.926 E.03817
G1 X136.345 Y100.026 E.03818
G1 X136.756 Y101.171 E.03814
G1 X137.052 Y102.351 E.03814
G1 X137.232 Y103.556 E.0382
G1 X137.293 Y104.771 E.03814
G1 X137.234 Y105.986 E.03814
G1 X137.056 Y107.191 E.03819
G1 X136.761 Y108.371 E.03814
M73 P3 R19
G1 X136.352 Y109.517 E.03815
G1 X135.832 Y110.618 E.03818
G1 X135.207 Y111.663 E.03818
G1 X134.483 Y112.641 E.03815
G1 X133.667 Y113.543 E.03814
G1 X132.765 Y114.361 E.03818
G1 X131.789 Y115.087 E.03814
G1 X130.744 Y115.713 E.03819
G1 X129.645 Y116.235 E.03815
G1 X128.499 Y116.646 E.03817
G1 X127.365 Y116.931 E.03666
M204 S1000
G1 X127.178 Y117.324 F10800
;WIPE_START
G1 F8640
G1 X126.114 Y117.122 E-.29221
G1 X124.899 Y117.183 E-.2809
G1 X123.918 Y117.135 E-.22689
;WIPE_END
G1 Z.6 F720
G1 X136.493 Y96.443 F10800
G1 Z.2 F720
G1 E.8 F2100
M204 S800
;TYPE:Solid infill
;WIDTH:0.420979
G1 F1200
M73 Q3 S20
G1 X135.017 Y94.967 E.06562
G1 X133.99 Y94.037 E.04355
G1 X132.873 Y93.208 E.04373
G1 X132.497 Y92.982 E.01379
G1 X137.004 Y97.489 E.20037
G1 X137.498 Y98.314 E.03023
G1 X137.681 Y98.7 E.01343
G1 X131.286 Y92.306 E.28428
G1 X130.298 Y91.852 E.03418
G1 X138.135 Y99.689 E.34841
G1 X138.432 Y100.521 E.02777
G1 X136.392 Y98.481 E.09069
G1 X136.899 Y99.523 E.03643
G1 X138.663 Y101.286 E.0784
G1 X138.841 Y102 E.02313
G1 X137.238 Y100.396 E.07129
G1 X137.433 Y100.937 E.01808
G1 X137.497 Y101.19 E.0082
G1 X138.962 Y102.655 E.06513
G1 X139.055 Y103.283 E.01996
G1 X137.679 Y101.906 E.06119
G1 X137.749 Y102.184 E.00901
G1 X137.808 Y102.57 E.01228
G1 X139.117 Y103.879 E.05819
G1 X139.145 Y104.442 E.01772
G1 X137.903 Y103.2 E.05522
G1 X137.942 Y103.458 E.0082
G1 X137.959 Y103.791 E.01048
G1 X139.172 Y105.004 E.05393
G1 X139.147 Y105.513 E.01602
G1 X137.989 Y104.355 E.05148
G1 X138.002 Y104.902 E.0172
G1 X139.122 Y106.023 E.04981
G1 X139.104 Y106.39 E.01155
G1 X139.084 Y106.52 E.00413
G1 X137.978 Y105.413 E.04919
G1 X137.954 Y105.924 E.01608
G1 X139.016 Y106.986 E.04721
G1 X138.947 Y107.451 E.01478
G1 X137.895 Y106.4 E.04675
G1 X137.827 Y106.867 E.01484
G1 X138.865 Y107.905 E.04615
G1 X138.758 Y108.332 E.01384
G1 X137.757 Y107.331 E.0445
G1 X137.651 Y107.759 E.01386
G1 X138.651 Y108.76 E.04448
G1 X138.562 Y109.117 E.01157
G1 X138.538 Y109.182 E.00218
G1 X137.545 Y108.188 E.04417
G1 X137.433 Y108.612 E.01379
G1 X138.398 Y109.576 E.04288
G1 X138.257 Y109.97 E.01315
G1 X137.293 Y109.006 E.04286
G1 X137.154 Y109.401 E.01316
G1 X138.116 Y110.363 E.04277
G1 X137.949 Y110.731 E.0127
G1 X137.011 Y109.794 E.04168
G1 X136.84 Y110.157 E.01261
G1 X137.778 Y111.094 E.04168
G1 X137.606 Y111.458 E.01266
G1 X136.669 Y110.521 E.04166
G1 X136.498 Y110.885 E.01264
G1 X137.424 Y111.81 E.04114
G1 X137.224 Y112.144 E.01224
G1 X136.303 Y111.223 E.04094
G1 X136.103 Y111.559 E.01229
G1 X137.023 Y112.479 E.0409
G1 X136.823 Y112.813 E.01224
G1 X135.904 Y111.894 E.04086
G1 X135.688 Y112.213 E.01211
G1 X136.601 Y113.126 E.04059
G1 X136.373 Y113.433 E.01202
G1 X135.462 Y112.521 E.04052
G1 X135.235 Y112.829 E.01203
G1 X136.146 Y113.74 E.0405
G1 X135.955 Y113.998 E.01009
G1 X135.914 Y114.043 E.00191
G1 X135.002 Y113.131 E.04054
G1 X134.749 Y113.412 E.01189
G1 X135.66 Y114.323 E.0405
G1 X135.406 Y114.604 E.01191
G1 X134.496 Y113.694 E.04046
